img/telegram.svg

<svg width="24" height="24" viewBox="0 0 24 24" fill="none" xmlns="http://www.w3.org/2000/svg">
<g opacity="0.6">
<path d="M9.63262 15.1813L9.2687 20.7653C9.78938 20.7653 10.0149 20.5213 10.2853 20.2283L12.7264 17.6833L17.7847 21.7243C18.7124 22.2883 19.366 21.9913 19.6163 20.7933L22.9365 3.8214L22.9374 3.8204C23.2317 2.3244 22.4415 1.73941 21.5377 2.1064L2.02135 10.2574C0.689406 10.8214 0.709573 11.6314 1.79493 11.9984L6.78447 13.6913L18.3742 5.78039C18.9196 5.38639 19.4155 5.60439 19.0076 5.99839L9.63262 15.1813Z" fill="white"/>
</g>
</svg>

<svg width="24" height="24" fill="none" xmlns="http://www.w3.org/2000/svg"><path d="M9.633 15.181l-.364 5.584c.52 0 .746-.244 1.016-.537l2.441-2.545 5.059 4.041c.927.564 1.581.267 1.831-.93l3.32-16.973h.001c.295-1.497-.495-2.082-1.4-1.715L2.022 10.257c-1.332.564-1.311 1.374-.226 1.741l4.99 1.693 11.59-7.91c.545-.395 1.04-.177.633.217l-9.375 9.183z" fill="#fff" opacity=".6"/></svg>
